!!!COM: Debussy, Claude
!!!OTL: Syrinx
!!!ONB: for solo flute
!!!YEC: Copyright 1994, David Huron
!!!YEM: Rights to all derivative electronic formats reserved.
**kern
*M3/4
*k[b-e-a-d-g-]
*MM38
=1
{x(8.bb-~
32aa
32bbn)
(8.aa-~
32ggn
32aan)
(16g-
16ff
16een
16dd-)
=2
(8.bb-
32ccc
32ccc-
2bb-)}x,
qr;
*>A
=3
(8.bb-~
32aan
32bbn)
(8.aa-~
32ggn
32aan)
(16gg-
16ff
16een
16dd-)
=4
(8.b-~
32f#
32gn
[8bn~
24b]),
(24f#
24g
24cc
24f#
24g
24dd-
qff
24een
24dd-
=5
8.b-
32f#
32gn
4bn),
24r
(24a-
24cc-
24dd-
24ff-
24aa-)
=6
8.r
16aa-
([2ccc-
=7
2ccc-]
4ddd-)
=8
(2eee-
4bb-),
!! Un peu mouvemente/ (mais tre\s peu)
=9
(8.b-~
32an
32bn)
(8.a-
32gn
32an)
(16g-
16f
16en
16d-)
=10
(8.b-~
32an
32bn)
(8.a-~
32gn
32an)
(16g-
16a-
16b-
16dd-
=11
16ee-
qgg
16ff
16ee-
16dd-)
([4b-
16b-],
16a-
16d-
16e-
=12
32g-
32a-
32b-
32dd-
32ee-
qgg
32ff
32ee-
32dd-
[4b-
8b-]),
(24dd-
24ee-
24gg-)
=13
([8aan
32aa]
32aa-
32ggn
32gg-)
([8ee-
32ee-]
32ddn
32dd-
32cc)
([8an
32a]
32a-
32gn
32g-)
=14
(12e-
qg
12f
12f-)
4e-,
(8fn
8f-)
=15
(12e-
qg
12f
12f-)
(12e-
qg
12fn
12f-)
!! Ce/dez
(12e-
qf
12f-
12e)
*>B
!! Rubato
=16
(12dn
qf
12en
12d-
8c
8d-
8g-
8b--),
=17
(12dn
qg
12f
12d
4d-
4dd-),
=18
(12dn
qf
12en
12d-
8c
8d-
8g-
8b--)
=19
(12dn
qg
12f
12d
4d-
[4ee-
=20
8ee-]
24dd-
24cc-
24b-
[4a-
24a-]),
(24e-
24g-
24a-
24b-
24dd-)
=21
(8ee-~
24dd-
24ee-
24ff
16ee-
16dd-
16cc-
[16b-
4b-_
=22
24b-],
(24cc-
24dd-
24ee--
24dd-
24cc-)
(24b-
24cc-
24ee--
24ff-
24ee--
24cc-)
(32b-
32an
32a-
32g-
32dn
32g-
32a-
32an
=23
4b-),
(4dd-T
4b-)
=24
(4ffT
4b-)
(Q32ff
Q32gg-
Q32aa-)
[4bb-
=25
2bb-;],
!! (Not a good idea to start a section midway through a tied note;
!!  so section C starts a quarter-duration early.)
*>C
!! au Mouvt (tre\s mode/re/)
([4bb-~
=26
8.bb-]
32aan
32bbn)
(8.aa-~
32ggn
32aan)
(16gg-
16ff
16een
16dd-),
=27
([4bb-
16bb-]
16ddd-
qfff-
16eee--
16ddd-
[4bb-
=28
8.bb-]
32aan
32bbn)
(8.aa-~
32ggn
32aan
16gg-
16ff
16een
16dd-),
*>D
=29
*M2/4
(24b-
24an
24bn
24a-
24gn
24an
16g-
16f
16en
16d-),
=30
(24b-
24an
24bn
24a-
24gn
24an
16g-
16f
16en
[16d-
=31
*M3/4
!! En retenant jusqu'a\ la fin.
4d-]),
(12d-
qg
12f
12en)
([4d-
=32
4d-_
12d-]
12an
12gn)
[4d-
=33
4d-],
([2bn~
=34
!! Tre\s retenu
4bn^_
10b]
10an
10gn
10f
10e-)
=35
(qe-
2.d-;)
==
*-
!!!CDT: 1685/3//-1750/7/28
!!!OCY: France
!!!PPP: Coethen; Cothen; Co2then
!!!ODE: Louis Fleury
!!!ODT: <1722
!!!PDT: 1722
!!!AFR: solo instrumental
!!!AST: polyphony
!!!AMT: simple triple
!!!AIN: flt
!!!EEV: 1.0
!!!RDT: 1994 August 2
!!!YER: 1994 August 10
!!!VTS: 652652838
